X: 37926
T: Souvenir, The
R: hornpipe
M: 4/4
K: Gmajor
DC|:B,DED BGDB,|CEGE cGEG|FGAB cAFA|GA (3Bcd gdBG|
B,DED BGDB,|CEGE cGEG|FGAB cAFA|1 AGFA G2DC:|2 ecAF G2 gf||
|:ecGc efge|dBGB d^c=cA|FD^CD FAce|(3ded (3BcB (3GBG D2|
EGce DGBd|=CEGc B,DGB|E2 F2 G2 A2|1 (3BdB (3DEF G2 gf:|2 (3BdB (3DEF G2 G4||

